X: 16
T: Fermoy Lasses, The
Z: Pierrick Jean
S: https://thesession.org/tunes/219#setting50651
R: reel
M: 4/4
L: 1/8
K: Emin
|:GE E2 BE E2|GE E2 B4|GE E2 BE E2|AFDF AdBA|
GE E2 BE E2|GE E2 c4|G2 D(GG2)DG|AFDF AdBA:|
G2 G2 DGBG|G2 B/c/d edge|dGG2 d4|A2FD AdBA|
G2 G2 DGBG|G2 Bd egg2|gage d2dB|AFDF AdBA|
G2 G2 DGBG|G2 B/c/d edge|dGG2 dGG2|AFDF AdBA|
G2 G2 DGBG|G2 Bd egg2|gage d2dB|AFDF A2BA||

